X:9
T:No.71 Johnny Boyle's Jig
C:jig
M:6/8
L:1/8
K:G
DEG BAG|BdB BAG|cde dBG|
ccc AGE|DEG BAG|BdB BAB|
def gdB|[1cAF GFE:|[2cAF G3||
bbb gbg|dgb bag|aaa fff|
dfa agf|bbb gbg|dgb bag|
a3f3|[1dafg2a:|[2daf g2f||e3edB|
edB gdB|edc BAG|c3AGE|DEG BAG|
BdB BAB|def gdB|cAF GFE||
